X:1
T:Bober's o' Brechin
M:C
L:1/8
R:Reel
S:Gow - 1st Repository
Z:AK/Fiddler's Companion <AIKUNTZ@aol.com> scots-l 2002-12-21
K:G Minor
g|dg~g^f g2 d=f|cdfg dfcf|dgg^f ge dg|fdc>A {A}G2 GB|Ggg^f g2 {fg}d=f|
c>dfg afcf|d^fga bag=f|dfc>A {A}G2G||d|BGdG BGd=e|f>d c<f AFcA|BGdG BGdg|
fdc>A {A}G2 Gd|BGdG BGd=e|f.dcf AfcA|GABc d=efg|f>dc>A {A}G2G||
